X:22
T: SIE SOLLEN IHN NICHT HABEN DEN FREIEN DEUTSCHEN RHEIN
N: B0025
O: Europa, Mitteleuropa, Deutschland
R: politisch, national, Vaterlands - Lied
M: 4/4
L: 1/8
K: A
E2 | A2A2A2B2 | c2A2E2
E2 | F2dcBABc | A4z2
A2 | c2c2e2^dc | B3AG2
G2 | F2AcB2B2 | E4z2
E2 | E2FGA2BC | d4B2
f2 | d2c2B2A2 | e4z2
E2 | c2B2A2G2 | F2G2A2
B2 | c2edc2B2 | A4z2

@@@ Tune index: 1825
